dist/svgs/crypto-icons/icons/unity.svg

<?xml version="1.0" encoding="UTF-8" standalone="yes"?>
<svg xmlns="http://www.w3.org/2000/svg" xmlns:xlink="http://www.w3.org/1999/xlink" width="512px" height="512px" viewBox="0 0 384 384" version="1.1">
  <g id="surface1">
    <path style=" stroke:none;fill-rule:nonzero;fill:rgb(0%,0%,0%);fill-opacity:1;" d="M 364.34375 132.761719 L 364.34375 244.808594 C 376.570312 227.84375 383.621094 208.878906 383.621094 188.785156 C 383.621094 168.6875 376.570312 149.710938 364.34375 132.761719 Z M 244.132812 133.257812 C 260.339844 148.601562 307.613281 207.222656 337 244.175781 L 337 104.710938 C 301.816406 77.3125 249.871094 59.878906 191.789062 59.878906 C 164.617188 59.878906 138.835938 63.730469 115.417969 70.5625 C 159.734375 72.886719 201.957031 93.285156 244.132812 133.257812 Z M 244.132812 133.257812 "/>
    <path style=" stroke:none;fill-rule:nonzero;fill:rgb(0%,0%,0%);fill-opacity:1;" d="M 225.332031 153.085938 C 185.804688 115.636719 147.09375 97.445312 106.992188 97.445312 C 56.039062 97.445312 42.578125 116.167969 42.578125 126.082031 C 42.5 135.941406 42.441406 144.886719 49.667969 152.191406 C 57.277344 159.835938 75.949219 168.953125 121.636719 168.953125 C 161.777344 168.953125 190.816406 178.070312 207.976562 196.046875 C 219.722656 208.363281 225.277344 223.832031 224.417969 242.027344 C 224.417969 256.292969 210.59375 304.121094 147.96875 314.140625 C 162.0625 316.359375 176.6875 317.652344 191.789062 317.652344 C 245.773438 317.652344 294.476562 302.628906 329.332031 278.503906 C 295.425781 235.503906 241.3125 168.234375 225.332031 153.085938 Z M 225.332031 153.085938 "/>
    <path style=" stroke:none;fill-rule:nonzero;fill:rgb(0%,0%,0%);fill-opacity:1;" d="M 123.675781 288.761719 C 193.070312 288.761719 197.03125 242.542969 197.074219 242.0625 C 197.304688 236.859375 197.855469 225.039062 188.207031 214.914062 C 176.578125 202.742188 153.558594 196.296875 121.636719 196.296875 C 76.785156 196.296875 46.886719 188.175781 30.296875 171.449219 C 19.292969 160.375 16.320312 147.808594 15.519531 137.910156 C 5.527344 153.523438 -0.0625 170.707031 -0.0625 188.789062 C -0.0625 211.710938 8.957031 233.199219 24.59375 251.871094 C 46.886719 273 80.332031 288.761719 123.675781 288.761719 Z M 123.675781 288.761719 "/>
  </g>
</svg>

<svg xmlns="http://www.w3.org/2000/svg" viewBox="0 0 384 384"><path d="M364.344 132.762v112.047c12.226-16.965 19.277-35.93 19.277-56.024 0-20.097-7.05-39.074-19.277-56.023zm-120.211.496c16.207 15.344 63.48 73.965 92.867 110.918V104.71c-35.184-27.398-87.129-44.832-145.21-44.832-27.173 0-52.954 3.851-76.372 10.684 44.316 2.324 86.539 22.722 128.715 62.695zm0 0"/><path d="M225.332 153.086c-39.527-37.45-78.238-55.64-118.34-55.64-50.953 0-64.414 18.722-64.414 28.636-.078 9.86-.137 18.805 7.09 26.11 7.61 7.644 26.281 16.761 71.969 16.761 40.14 0 69.18 9.117 86.34 27.094 11.746 12.316 17.3 27.785 16.441 45.98 0 14.266-13.824 62.094-76.45 72.114 14.095 2.218 28.72 3.511 43.821 3.511 53.984 0 102.688-15.023 137.543-39.148-33.906-43-88.02-110.27-104-125.418zm0 0"/><path d="M123.676 288.762c69.394 0 73.355-46.219 73.398-46.7.23-5.203.781-17.023-8.867-27.148-11.629-12.172-34.648-18.617-66.57-18.617-44.852 0-74.75-8.121-91.34-24.848-11.004-11.074-13.977-23.64-14.777-33.539C5.527 153.523-.062 170.707-.062 188.79c0 22.92 9.019 44.41 24.656 63.081 22.293 21.129 55.738 36.89 99.082 36.89zm0 0"/></svg>
